X:1
T:Wake, Brothers, Wake
T:Wake, Brothers, Wake
T:John Robson Sweney
T:Thomas Loyd Baily, 1881
T:Public Domain Courtesy of the Cyber Hymnal™
T:Public Domain Courtesy of the Cyber Hymnal™
C:John Robson Sweney
Z:Public Domain
Z:Courtesy of the Cyber Hymnal™
%%score ( 1 2 ) ( 3 4 )
L:1/8
Q:1/4=97
M:4/4
K:A
V:1 treble 
V:2 treble 
V:3 bass 
V:4 bass 
V:1
 [CE]2 [Ec]>[Ec] [Ec]3 [EA] | [FB][FA][EG][FA] [FB]2 F2 | [EG]2 [Ed]>[Ed] [Ed]3 [Ec] | %3
w: 1.~Wake, bro- thers, wake, the|dawn is now ap- pear- ing,|Light o’er the earth makes|
w: 2.~March, com- rades, march, the|foe is draw- ing near- er,|Look o’er the field— their|
w: 3.~Stand, sol- diers, stand, the|foe is grow- ing bold- er,|Raise up the cross, and|
w: 4.~Cheer, Chris- tians, cheer, the|word at last is spok- en,|Hell and its host no|
 [Ec][DB][DF][DG] [DF]2 [CE]2 | [CE]2 [CA]>[Ec] [Ae]3 [Ec] | [Fd][Fc][FB][FA] [EG]2 [DF]>[DF] | %6
w: all so bright and cheer- ing;|Loud sound the cry— the|con- flict now is near- ing— For|
w: le- gions show- ing clear- er,|Armed for the fray— O|what have we that’s dear- er Than|
w: shoul- der put to shoul- der;|Shout for our king, nor|let our love grow cold- er, For|
w: lon- ger stand un- brok- en,|Vic- tory is ours— be|this our on- ly to- ken: In|
 ([CE]2 [Ec]2) [Ec]2 [DB]2 | [CA]6 z2 ||"^Refrain" B2 B>B [A^d]3 [Ac] | %9
w: God * and the|right.||
w: God * and His|cause?||
w: God * and His|truth.||
w: God * is our|trust.||
 [Ac][GB][^^F^A][GB] [Ge]2 E2 | B2 B>B [A^d]3 [Ac] | [Ac][GB][F^A][GB] [Ge]2 E2 | %12
w: |||
w: |||
w: |||
w: |||
 [CE]2 [CA]>[DB] [Ec]3 [Ee] | [Fd][Fc][FB][FA] [EG]2 [DF]2 | [CE]2 [Ec]2 [Ec]3 [DB] | [CA]6 z2 |] %16
w: ||||
w: ||||
w: ||||
w: ||||
V:2
 x8 | x6 F2 | x8 | x8 | x8 | x8 | x8 | x8 || B2 B>B x4 | x6 E2 | B2 B>B x4 | x6 (ED) | x8 | x8 | %14
 x8 | x8 |] %16
V:3
 [A,,A,]2 [A,,A,]>[A,,A,] [A,,A,]3 [C,A,] | [D,A,][D,D][D,D][D,D] [D,D]2 [D,B,]2 | %2
w: ||
 [E,B,]2 [E,G,]>[E,G,] [E,G,]3 [E,A,] | [E,A,][E,G,][E,B,][E,B,] [A,,A,]2 [A,,E,]2 | %4
w: ||
 [A,,A,]2 [A,,E,]>[A,,A,] [A,,C]3 [A,,A,] | [D,A,][D,A,][D,A,][D,A,] [D,A,]2 [D,A,]>[D,A,] | %6
w: ||
 [E,A,]4 [E,A,]2 [E,G,]2 | [A,,A,]6 z2 || B,2 B,>B, [B,,B,]3 [B,,B,] | %9
w: ||On to the field, the|
 [E,B,][E,B,][E,B,][E,B,] [E,B,]2 [E,G,]2 | B,2 B,>B, [B,,B,]3 [B,,A,] | %11
w: foe is there be- fore us,|Strike for our cause, and|
 [E,B,][E,B,][E,B,][E,B,] [E,B,]2 [E,G,]2 | [A,,A,]2 [A,,E,]>[A,,E,] [A,,A,]3 [C,A,] | %13
w: sing a- loud our chor- us,|Point to the flag that|
 [D,A,][D,A,][D,A,][D,A,] [D,A,]2 [D,A,]2 | [E,A,]2 [E,A,]2 [E,A,]3 [E,G,] | [A,,E,]6 z2 |] %16
w: waves in tri- umph o’er us;|Je- sus is our|king.|
V:4
 x8 | x8 | x8 | x8 | x8 | x8 | x8 | x8 || B,2 B,>B, x4 | x8 | B,2 B,>B, x4 | x8 | x8 | x8 | x8 | %15
 x8 |] %16

